src/icons/svg/magic.svg

<?xml version="1.0" encoding="UTF-8"?>
<svg width="40px" height="40px" viewBox="0 0 40 40" version="1.1" xmlns="http://www.w3.org/2000/svg"
>
    <path d="M23.3033985,30.8234702 C23.0821256,30.8234702 22.8560425,30.8042291 22.6299593,30.7705571 C21.0329466,30.5156123 19.7437917,29.3996275 19.2627638,27.8555278 L17.5743557,22.4199121 L12.13874,20.7315041 C10.5946403,20.2504761 9.47865552,18.9613213 9.22371071,17.3643085 C8.96876591,15.7672958 9.63258446,14.1943344 10.9554113,13.2611402 L15.650244,9.94204743 L15.529987,4.2803486 C15.5107459,2.66409473 16.391027,1.2017698 17.8341108,0.465797051 C19.2771946,-0.270175694 20.9752232,-0.125867313 22.2739987,0.840998843 L26.8822463,4.2803486 L32.231277,2.41877048 C33.7609458,1.89926031 35.4253025,2.28889294 36.570149,3.42892915 C37.7149955,4.57377564 38.1046281,6.23332203 37.5851179,7.76780115 L35.7379707,13.2130374 L39.1580793,17.7250795 C40.1249455,19.0238549 40.2692538,20.7218835 39.5380914,22.1649673 C38.8117392,23.58881 37.3782759,24.4690912 35.7812632,24.4690912 L35.7235398,24.4690912 L29.975256,24.396937 L26.7427482,29.0436669 C25.929811,30.1740825 24.655087,30.8234702 23.3033985,30.8234702 L23.3033985,30.8234702 Z M23.4107424,26.5971319 L23.4307424,26.5971319 L23.4107424,26.5971319 Z M13.6203061,16.6620077 L18.9068031,18.3071233 C20.2344402,18.7208073 21.2686503,19.7550174 21.6823343,21.0826545 L23.3274499,26.3691515 L26.5214754,21.8474889 C27.3199817,20.712263 28.6043263,20.0628752 30.0185485,20.0628752 L35.55518,20.1350294 L32.2457078,15.6999518 C31.4135295,14.5887773 31.1874464,13.1360729 31.6299921,11.8228667 L33.4049852,6.57966214 L28.1617806,8.35465524 C26.8437641,8.80201122 25.39587,8.57111781 24.2846955,7.73893947 L19.8496179,4.42946726 L19.9217721,9.96609883 C19.9410132,11.3562696 19.2723843,12.6598553 18.1371584,13.4631719 L13.6203061,16.6620077 L13.6203061,16.6620077 Z"
          id="形状"></path>
    <path d="M5.15421436,39.9918627 C3.83138753,39.9918627 2.51337098,39.4915937 1.50802259,38.481435 C-0.502674195,36.4707382 -0.502674195,33.194938 1.50802259,31.1842412 L14.3803302,18.3119336 C15.2221291,17.4653244 16.5930587,17.4653244 17.4396679,18.3119336 C18.2862771,19.1537324 18.2862771,20.5246621 17.4396679,21.3712712 L4.56254999,34.2435789 C4.23545099,34.5706779 4.23545099,35.0998086 4.56254999,35.4269076 C4.88964899,35.7540066 5.41877972,35.7491963 5.74587872,35.4269076 L18.7288228,22.4439635 C19.5706217,21.5973544 20.9415513,21.5973544 21.7881605,22.4439635 C22.6347696,23.2857624 22.6347696,24.6566921 21.7881605,25.5033012 L8.80040613,38.4862453 C7.79505774,39.4915937 6.47223091,39.9918627 5.15421436,39.9918627 Z"
          id="路径"></path>
</svg>

<svg width="40" height="40" xmlns="http://www.w3.org/2000/svg"><path d="M23.303 30.823a4.197 4.197 0 0 1-4.04-2.968l-1.689-5.435-5.435-1.688a4.197 4.197 0 0 1-2.915-3.368 4.183 4.183 0 0 1 1.731-4.103l4.695-3.319-.12-5.662A4.199 4.199 0 0 1 17.834.466a4.193 4.193 0 0 1 4.44.375l4.608 3.44 5.35-1.862a4.203 4.203 0 0 1 4.338 1.01 4.193 4.193 0 0 1 1.015 4.339l-1.847 5.445 3.42 4.512a4.204 4.204 0 0 1 .38 4.44 4.192 4.192 0 0 1-3.757 2.304h-.057l-5.749-.072-3.232 4.647a4.229 4.229 0 0 1-3.44 1.78zm.108-4.226h.02-.02zm-9.79-9.935l5.286 1.645a4.216 4.216 0 0 1 2.775 2.776l1.645 5.286 3.194-4.522c.799-1.135 2.083-1.784 3.498-1.784l5.536.072-3.31-4.435a4.222 4.222 0 0 1-.615-3.877l1.775-5.243-5.243 1.775a4.206 4.206 0 0 1-3.877-.616l-4.435-3.31.072 5.537a4.21 4.21 0 0 1-1.785 3.497l-4.517 3.199z"/><path d="M5.154 39.992c-1.323 0-2.64-.5-3.646-1.51a5.168 5.168 0 0 1 0-7.298L14.38 18.312a2.16 2.16 0 0 1 3.06 0 2.16 2.16 0 0 1 0 3.06L4.563 34.243a.836.836 0 1 0 1.183 1.183l12.983-12.983a2.16 2.16 0 0 1 3.06 0 2.16 2.16 0 0 1 0 3.06L8.8 38.485a5.142 5.142 0 0 1-3.646 1.506z"/></svg>
